X:1
T:A Missionary Cry
T:James H. Burke (1858-1901)
T:A Missionary Cry
T:Public Domain
T:Public Domain
T:Public Domain
C:James H. Burke (1858-1901)
Z:Public Domain
%%score ( 1 2 ) ( 3 4 )
L:1/8
M:4/4
K:G
V:1 treble 
V:2 treble 
V:3 bass 
V:4 bass 
V:1
 D2 | [B,G]2 [CG]2 (GF)(GA) | [DB]3 [CA] [B,G]2 [DF]2 | [DE]2 [CE]2 (EF)(GA) | %4
w: 1.~A|dred thou- sand * souls *|Are pass- ing one|by one a- * way *|
w: 2.~O|ly Ghost, Thy * peo- *|Bap- tize their hearts|with faith and * love *|
w: 3.~The|ter’s com- ing * draw- *|The Son of Man|will soon ap- * pear; *|
w: 4.~Oh,|us then His * com- *|Oh, let us end|this aw- ful * waste *|
w: 5.~They’re|ing, pass- ing, * fast *|A hun- dred thou-|sand souls a * day *|
 [EG]3 [CE] [B,D]2 [B,D]2 | [CE]2 [DG]2 [^CB]2 [CA]2 | [DA]6 D2 | [DG]2 [B,G]2 (GF)([DG][CA]) | %8
w: less guilt and gloom;|With- out one ray|of hope|light, With fu- * ture *|
w: se- crate their gold.|At Je- sus’ feet|their mil-|pour, And all * their *|
w: dom is at hand.|But ere that glor-|ious day|be, This gos- * pel *|
w: that ne- ver die.|A thou- sand mil-|lions still|lost; A Sav- * ior’s *|
w: less guilt and gloom.|O Church of Christ,|what wilt|say When, in * the *|
 [B,B]3 [CA] [B,G]2 [DF]2 | [DE]2 [CE]2 (EF)(GA) | [EG]3 [CE] [B,D]2 [B,D]2 | [DG]3 D [CG]2 (AB) | %12
w: as end- less night,|They’re pass- ing * to *|They’re pass- ing to|their doom. * * *|
w: u- nite once more,|As in the * days *|As in the days|of old. * * *|
w: the king- dom we|Must preach in * ev- *|Must preach in ev-|ery land. * * *|
w: has paid the cost,|Oh, hear their * dy- *|Oh, hear their dy-|ing cry. * * *|
w: ful judg- ment day,|They charge thee * with *|They charge thee with|their doom? * * *|
 [Ec]6 [EA]2 | [B,G]2 D2 [DB]2 (DC) | [B,G]6 ||"^Refrain" [CD]2 | (B,2 C2) D2 B,2 | %17
w: |||||
w: |||||
w: |||||
w: |||||
w: |||||
 [DB]4 (D2 B,2) | [DF]3 [CE] [CE]2 [DE]2 | [Cc]2 [EA]2 [DF]2 [^CE]2 | D6 [B,D]2 | %21
w: ||||
w: ||||
w: ||||
w: ||||
w: ||||
 [B,G]2 D2 [CG]2 (AB) | [Ec]6 [EA]2 | [B,G]2 D2 [DB]2 [CA]2 | [B,G]6 |] %25
w: ||||
w: ||||
w: ||||
w: ||||
w: ||||
V:2
 D2 | x4 D2 D2 | x8 | x4 C2 D2 | x8 | x8 | x6 D2 | x4 D2 x2 | x8 | x4 C2 D2 | x8 | x3 D x =F2 x | %12
w: hun-|a day||In Christ-|||or|dark||their doom,|||
w: Ho-|ple move,||And con-|||lions|ranks||of old,|||
w: Mas-|eth near;||His king-|||can|of||ery land,|||
w: let|ing haste,||Of souls|||are|blood||ing cry,|||
w: pass-|a- way,||In Christ-|||thou|aw-||their doom,|||
 x8 | x2 D2 A2 x2 | x6 || x2 | G4 D4 | x4 G4 | x8 | x8 | D6 x2 | x2 D2 =F2 x2 | x8 | x2 D2 x4 | %24
w: ||||||||||||
w: ||||||||||||
w: ||||||||||||
w: ||||||||||||
w: ||||||||||||
 x6 |] %25
w: |
w: |
w: |
w: |
w: |
V:3
 D,2 | [G,,G,]2 [A,,G,]2 ([B,,G,][C,A,])([B,,G,][A,,F,]) | [G,,G,]3 [D,F,] [E,G,]2 [B,,G,]2 | %3
w: ~|~ ~ ~ * ~ *|~ ~ ~ ~|
 [C,G,]2 (C,B,,) [A,,A,]2 [B,,G,]2 | [C,G,]3 [C,G,] [G,,G,]2 G,2 | %5
w: ~ ~ * ~ ~|~ ~ ~ ~|
 [C,G,]2 [B,,G,]2 [A,,G,]2 [E,G,]2 | [D,F,]6 (D,C,) | [B,,G,]2 (C,B,,) [A,,A,]2 [B,,G,]2 | %8
w: ~ ~ ~ ~|~ ~ *|~ ~ * ~ ~|
 [G,,G,]3 [D,F,] [E,G,]2 [B,,G,]2 | [C,G,]2 (C,B,,) [A,,A,]2 [B,,G,]2 | %10
w: ~ ~ ~ ~|~ ~ * ~ ~|
 [C,G,]3 [C,G,] [G,,G,]2 G,2 | [G,B,]3 [F,A,] [E,G,]2 [D,G,]2 | [C,G,]6 [C,G,]2 | %13
w: ~ ~ ~ ~|~ ~ ~ ~|They’re pass-|
 [E,G,]2 (B,,C,) [D,G,]2 [D,F,]2 | [G,,G,]6 || [D,F,]2 | (G,,2 A,,2) (B,,2 G,,2) | %17
w: ing, pass- * ing fast|way|In|thou- * sands *|
 (G,2 F,2) (E,2 D,2) | [C,G,]3 [C,G,] [C,G,]2 [B,,^G,]2 | [A,,A,]2 [C,A,]2 [D,A,]2 [A,,G,]2 | %20
w: day; * They’re *|to their doom, They’re|pass- ing to their|
 [D,F,]6 G,2 | G,2 [F,A,]2 [E,G,]2 [D,G,]2 | [C,G,]6 [C,G,]2 | [E,G,]2 (B,,C,) [D,G,]2 [D,F,]2 | %24
w: doom. *||||
 [G,,G,]6 |] %25
w: |
V:4
 D,2 | x8 | x8 | x2 G,2 x4 | x6 G,2 | x8 | x6 F,2 | x2 G,2 x4 | x8 | x2 G,2 x4 | x6 G,2 | x8 | x8 | %13
w: ~|||~|~||~|~||~|~|||
 x2 G,2 x4 | x6 || x2 | G,4 G,4 | G,4 G,4 | x8 | x8 | x6 G,2 | G,2 x6 | x8 | x2 G,2 x4 | x6 |] %25
w: a-|||day by|pass- ing||||||||

